X:1
T:Just the Whispered Name of Jesus
T:Just the Whispered Name of Jesus
T:C. Austin Miles, 1910 & W. Howard Doane, 1871
T:Effie Stevens, 1910 & Lydia Baxter, 1870
T:Public Domain Courtesy of the Cyber Hymnal™
T:Public Domain Courtesy of the Cyber Hymnal™
C:C. Austin Miles, 1910 & W. Howard Doane, 1871
Z:Public Domain
Z:Courtesy of the Cyber Hymnal™
%%score ( 1 2 ) ( 3 4 )
L:1/8
Q:1/4=93
M:6/8
K:Ab
V:1 treble 
V:2 treble 
V:3 bass 
V:4 bass 
V:1
 C[CE] | [DF]2 [CE] [Ec]2 [Fd] | [Ec]3 [DB][DF][DG] | [DB]2 [DG] [DF]2 [DG] | [CE]4 C[CE] | %5
w: 1.~Just the|whis- pered name of|Je- sus Thrills my|soul with deep- est|love; Turns my|
w: 2.~Just the|whis- pered name of|Je- sus Drives a-|way de- sire to|sin; Gives me|
w: 3.~Just the|whis- pered name of|Je- sus Fills my|heart with joy un-|told, That some|
w: 4.~Just the|whis- pered name of|Je- sus Makes me|long to tell to|all How He|
 [DF]2 [CE] [Ec]2 [Fd] | [Ec]3 [DB][DE][DF] | [DG]2 [DE] [Ec]2 [DB] | [CA]6 || %9
w: thoughts from earth- ly|plea- sures To the|ho- ly joys a-|bove.|
w: cour- age to bear|brave- ly All life’s|bit- ter dis- ci-|pline.|
w: day His gra- cious|pre- sence I shall|cer- tain- ly be-|hold.|
w: saves, from sin and|sor- row, Those who|list- en to His|call.|
"^Refrain" [Ec]2 [EA] [=EB]2 [EG] | A6 | [FA]2 [FA] [EG]2 [DF] | [DF]2 [CE] [CE]3 | %13
w: ||||
w: Just the whis- pered|name|Brings the peace of|Hea- ven near;|
w: ||||
w: ||||
 [Ec]2 [EA] [=EB]2 [EG] | [FA]2 [_GA] !fermata![FA]2 [FB] | [Ec]2 [EA] [EB]3 | [EA]3 z AG || %17
w: ||||
w: Bless- èd, bless- èd|name to hear! The|name of Je-|sus. Pre- cious|
w: ||||
w: ||||
[M:4/4] (z2 [FA])[DF] x6 | E6 [CA][DB] | [Ec]2 [CE]2 [CA]2 [Ec]2 | [EB]6 [Ec][DB] | A6 [CA][CG] | %22
w: |||||
w: * name,|O how sweet!|Hope of earth and|joy of Heav’n;|Pre- cious name,|
w: |||||
w: |||||
 F4 !fermata![FA]2 [FA][_FB] | [Ec]2 [CA]2 [Ec]2 [DB]2 | [CA]6 |] %25
w: |||
w: O how sweet! Hope|* of earth and|joy|
w: |||
w: |||
V:2
 C x | x6 | x6 | x6 | x4 C x | x6 | x6 | x6 | x6 || x6 | (F3 _G3) | x6 | x6 | x6 | x6 | x6 | x6 || %17
[M:4/4] (F6 DD D2) | (C2 CC C2) x2 | x8 | x8 | (C2 CC C2) x2 | D2 D2 x4 | x8 | x6 |] %25
V:3
 [A,,A,][A,,A,] | [A,,A,]2 [A,,A,] [A,,A,]2 [A,,A,] | [E,A,]3 [E,G,][E,G,][E,G,] | %3
 [E,G,]2 [E,B,] [E,B,]2 [E,B,] | [A,,A,]4 [A,,A,][A,,A,] | [A,,A,] [A,,A,]2 [A,,A,] [A,,A,]2 | %6
 [E,A,]3 [E,G,][E,G,][E,G,] | [E,B,]2 [E,G,] [E,A,]2 [E,G,] | [A,,A,]6 || %9
 [A,C]2 [A,C] [G,C]2 [G,C] | C6 | [D,D]2 [D,D] [D,A,]2 A, | A,2 [A,,A,] [A,,A,]3 | %13
 [A,C]2 [A,C] [G,C]2 [G,C] | [F,C]2 [E,C] !fermata![D,D]2 [D,A,] | [E,A,]2 [E,C] [E,D]3 | %16
 [A,C]3 z3 ||[M:4/4] z2 [D,A,][D,A,] [D,A,]2 z2 x2 | z2 [A,,A,][A,,A,] [A,,A,]2 [A,,A,][A,,A,] | %19
 [A,,A,]2 [A,,A,]2 [A,,A,]2 [A,,A,]2 | [E,G,]6 z2 | z2 [A,,A,][A,,A,] [A,,A,]2 [A,,A,][A,,A,] | %22
 [D,A,]2 [D,A,]2 !fermata![D,D]2 [D,D][D,D] | [E,A,]2 [E,A,]2 [E,A,]2 [E,G,]2 | [A,,A,]6 |] %25
V:4
 x2 | x6 | x6 | x6 | x6 | x6 | x6 | x6 | x6 || x6 | (F,3 E,3) | x5 (D,/F,/) | A,2 x4 | x6 | x6 | %15
 x6 | x6 ||[M:4/4] x10 | x8 | x8 | x8 | x8 | x8 | x8 | x6 |] %25

